X: 531
T: Yuer zhao huatai
L: 1/8
M: 2/4
K: G
A2A d [I:setbarnb 1]| 
c3A | 
A A A d | 
c4 | 
AA2d | 
a2f e | 
d d e B | 
A4 | 
A AE2 | 
Ad2B | 
A2G E | 
A G/ E/D2 | 
A E A A | 
G ED2 | 
A A G E | 
D4 |]

@@@ Tune index: 9405
